X:332
T:Ch'tait la fte ed no village
C:trad.
A:Picardie
O:France
M:6/8
L:1/8
Q:1/4=120
K:D
DD2D|E2E EF G|A2d dc B|A2d dc B|A2EE2E|E2E EF G|
M:9/8
F3E3D2C|
M:6/8
D2 z d2D|D3d2D|D||
W:
W:Ch'tait la fte ed no village
W:Qu'j'tion-ons content, qu'j'tion-ons content,
W:J'tais  la fleur de-e mon ge
W:A quatorze ans
W:Rou piou piou ! (bis)
